static/assets/template/assets/img/icons/essential/detailed/Credit_Card.svg

<svg height="97" viewBox="0 0 146 97" width="146" xmlns="http://www.w3.org/2000/svg"><g fill="none" fill-rule="evenodd" transform="translate(2 2)"><path d="m135 92.6h-127.8c-4 0-7.2-3.2-7.2-7.2v-78.2c0-4 3.2-7.2 7.2-7.2h127.8c4 0 7.2 3.2 7.2 7.2v78.2c0 4-3.2 7.2-7.2 7.2z" fill-rule="nonzero"/><path d="m142.2 12.2v73.7c0 3.7-3 6.7-6.7 6.7h-122.8c-3.7 0-6.7-3-6.7-6.7v-73.7c0-3.7 3-6.8 6.7-6.8h122.8c3.7 0 6.7 3 6.7 6.8z" fill-rule="nonzero"/><path d="m5.9 19.6h136.7v17.2h-136.7z" fill="#87bdff" fill-rule="nonzero"/><path d="m.1 45.6v-36.2c0-5.1 4.1-9.2 9.2-9.2h3.7" stroke-linecap="round" stroke-linejoin="round" stroke-width="3"/><path d="m42.1.2h90.8c5.1 0 9.2 4.1 9.2 9.2v74c0 5.1-4.1 9.2-9.2 9.2h-123.6c-5.1 0-9.2-4.1-9.2-9.2v-22" stroke-linecap="round" stroke-linejoin="round" stroke-width="3"/><path d="m22.5.2h4" stroke-linecap="round" stroke-linejoin="round" stroke-width="3"/><g transform="translate(98 64)"><circle cx="23.4" cy="10.2" fill="#87bdff" fill-rule="nonzero" r="9.4"/><g stroke-linecap="round" stroke-linejoin="round" stroke-width="3"><path d="m16.4 16.2c-1.7 1.9-4.1 3-6.8 3-5.1 0-9.2-4.1-9.2-9.2s4.1-9.2 9.2-9.2c1.2 0 2.3.2 3.3.6"/><path d="m31.8 13.4c-1.4 3.4-4.7 5.8-8.6 5.8-5.1 0-9.2-4.1-9.2-9.2 0-3 1.4-5.7 3.7-7.4"/><path d="m21.7.9c.5-.1 1-.1 1.5-.1 4.8 0 8.7 3.6 9.2 8.2"/></g></g><g stroke-linecap="round" stroke-linejoin="round" stroke-width="3"><path d="m68.3 64.2h13.1"/><path d="m17.6 64.2h43.7"/><path d="m17.6 74.3h19.6"/><path d="m140.1 19.7c-27.6 0-111 0-133.6 0"/><path d="m16.2 36.4c-9.4 0-15.3 0-15.3 0"/><path d="m141.4 36.4h-1.3c-21.7 0-77.7 0-111.7 0"/><path d="m99.5 29.7h41.8"/><path d="m83.1 29.7h9.5"/></g></g></svg>

<?xml version="1.0" encoding="UTF-8"?>
<svg width="146px" height="97px" viewBox="0 0 146 97" version="1.1" xmlns="http://www.w3.org/2000/svg" xmlns:xlink="http://www.w3.org/1999/xlink">
    <!-- Generator: Sketch 51.2 (57519) - http://www.bohemiancoding.com/sketch -->
    <title>Credit_Card</title>
    <desc>Created with Sketch.</desc>
    <defs></defs>
    <g id="Page-1" stroke="none" stroke-width="1" fill="none" fill-rule="evenodd">
        <g id="Credit_Card" transform="translate(2.000000, 2.000000)">
            <path d="M135,92.6 L7.2,92.6 C3.2,92.6 0,89.4 0,85.4 L0,7.2 C0,3.2 3.2,-2.27373675e-13 7.2,-2.27373675e-13 L135,-2.27373675e-13 C139,-2.27373675e-13 142.2,3.2 142.2,7.2 L142.2,85.4 C142.2,89.4 139,92.6 135,92.6 Z" id="Shape" class="fill-neutral" fill-rule="nonzero"></path>
            <path d="M142.2,12.2 L142.2,85.9 C142.2,89.6 139.2,92.6 135.5,92.6 L12.7,92.6 C9,92.6 6,89.6 6,85.9 L6,12.2 C6,8.5 9,5.4 12.7,5.4 L135.5,5.4 C139.2,5.4 142.2,8.4 142.2,12.2 Z" id="Shape" class="fill-primary-100" fill-rule="nonzero"></path>
            <rect id="Rectangle-path" fill="#87BDFF" fill-rule="nonzero" x="5.9" y="19.6" width="136.7" height="17.2"></rect>
            <path d="M0.1,45.6 L0.1,9.4 C0.1,4.3 4.2,0.2 9.3,0.2 L13,0.2" id="Shape" class="stroke-primary" stroke-width="3" stroke-linecap="round" stroke-linejoin="round"></path>
            <path d="M42.1,0.2 L132.9,0.2 C138,0.2 142.1,4.3 142.1,9.4 L142.1,83.4 C142.1,88.5 138,92.6 132.9,92.6 L9.3,92.6 C4.2,92.6 0.1,88.5 0.1,83.4 L0.1,61.4" id="Shape" class="stroke-primary" stroke-width="3" stroke-linecap="round" stroke-linejoin="round"></path>
            <path d="M22.5,0.2 L26.5,0.2" id="Shape" class="stroke-primary" stroke-width="3" stroke-linecap="round" stroke-linejoin="round"></path>
            <g id="Group" transform="translate(98.000000, 64.000000)">
                <circle id="Oval" fill="#87BDFF" fill-rule="nonzero" cx="23.4" cy="10.2" r="9.4"></circle>
                <path d="M16.4,16.2 C14.7,18.1 12.3,19.2 9.6,19.2 C4.5,19.2 0.4,15.1 0.4,10 C0.4,4.9 4.5,0.8 9.6,0.8 C10.8,0.8 11.9,1 12.9,1.4" id="Shape" class="stroke-primary" stroke-width="3" stroke-linecap="round" stroke-linejoin="round"></path>
                <path d="M31.8,13.4 C30.4,16.8 27.1,19.2 23.2,19.2 C18.1,19.2 14,15.1 14,10 C14,7 15.4,4.3 17.7,2.6" id="Shape" class="stroke-primary" stroke-width="3" stroke-linecap="round" stroke-linejoin="round"></path>
                <path d="M21.7,0.9 C22.2,0.8 22.7,0.8 23.2,0.8 C28,0.8 31.9,4.4 32.4,9" id="Shape" class="stroke-primary" stroke-width="3" stroke-linecap="round" stroke-linejoin="round"></path>
            </g>
            <path d="M68.3,64.2 L81.4,64.2" id="Shape" class="stroke-primary" stroke-width="3" stroke-linecap="round" stroke-linejoin="round"></path>
            <path d="M17.6,64.2 L61.3,64.2" id="Shape" class="stroke-primary" stroke-width="3" stroke-linecap="round" stroke-linejoin="round"></path>
            <path d="M17.6,74.3 L37.2,74.3" id="Shape" class="stroke-primary" stroke-width="3" stroke-linecap="round" stroke-linejoin="round"></path>
            <path d="M140.1,19.7 C112.5,19.7 29.1,19.7 6.5,19.7" id="Shape" class="stroke-primary" stroke-width="3" stroke-linecap="round" stroke-linejoin="round"></path>
            <path d="M16.2,36.4 C6.8,36.4 0.9,36.4 0.9,36.4" id="Shape" class="stroke-primary" stroke-width="3" stroke-linecap="round" stroke-linejoin="round"></path>
            <path d="M141.4,36.4 L140.1,36.4 C118.4,36.4 62.4,36.4 28.4,36.4" id="Shape" class="stroke-primary" stroke-width="3" stroke-linecap="round" stroke-linejoin="round"></path>
            <path d="M99.5,29.7 L141.3,29.7" id="Shape" class="stroke-primary" stroke-width="3" stroke-linecap="round" stroke-linejoin="round"></path>
            <path d="M83.1,29.7 L92.6,29.7" id="Shape" class="stroke-primary" stroke-width="3" stroke-linecap="round" stroke-linejoin="round"></path>
        </g>
    </g>
</svg>
